src/pos-icons/highway.svg

<svg height="24" viewBox="0 0 24 24" width="24" xmlns="http://www.w3.org/2000/svg"><path d="m10 2-2 6h3v-6zm3 0v6h3l-2-6zm-11 7v1h2v1h2v-1h12l.06 1h1.94v-1h2v-1zm5 2-3.66 11h7.66v-11zm6 0v11h7.66l-3.66-11z"/></svg>

<?xml version="1.0" encoding="UTF-8"?><!DOCTYPE svg PUBLIC "-//W3C//DTD SVG 1.1//EN" "http://www.w3.org/Graphics/SVG/1.1/DTD/svg11.dtd"><svg xmlns="http://www.w3.org/2000/svg" xmlns:xlink="http://www.w3.org/1999/xlink" version="1.1" id="mdi-highway" width="24" height="24" viewBox="0 0 24 24"><path d="M10,2L8,8H11V2H10M13,2V8H16L14,2H13M2,9V10H4V11H6V10H18L18.06,11H20V10H22V9H2M7,11L3.34,22H11V11H7M13,11V22H20.66L17,11H13Z" /></svg>
